Newaita-dark/apps/256/keepass.svg

<?xml version="1.0" encoding="UTF-8"?>
<svg xmlns="http://www.w3.org/2000/svg" xmlns:xlink="http://www.w3.org/1999/xlink" width="256pt" height="256pt" viewBox="0 0 256 256" version="1.1">
<defs>
<radialGradient id="radial0" gradientUnits="userSpaceOnUse" cx="450.908936" cy="189.579361" fx="450.908936" fy="189.579361" r="21.166656" gradientTransform="matrix(0.00000139336,-0.62506,-1.125108,-0.000000812309,356.185215,508.762635)">
<stop offset="0" style="stop-color:rgb(0%,0%,0%);stop-opacity:0.313725;"/>
<stop offset="0.222222" style="stop-color:rgb(0%,0%,0%);stop-opacity:0.27451;"/>
<stop offset="1" style="stop-color:rgb(0%,0%,0%);stop-opacity:0;"/>
</radialGradient>
<radialGradient id="radial1" gradientUnits="userSpaceOnUse" cx="450.908936" cy="189.579361" fx="450.908936" fy="189.579361" r="21.166656" gradientTransform="matrix(-0.00000139336,0.62506,1.125108,0.000000812309,-102.160949,-60.219856)">
<stop offset="0" style="stop-color:rgb(0%,0%,0%);stop-opacity:0.313725;"/>
<stop offset="0.222222" style="stop-color:rgb(0%,0%,0%);stop-opacity:0.27451;"/>
<stop offset="1" style="stop-color:rgb(0%,0%,0%);stop-opacity:0;"/>
</radialGradient>
<radialGradient id="radial2" gradientUnits="userSpaceOnUse" cx="450.908936" cy="189.579361" fx="450.908936" fy="189.579361" r="21.166656" gradientTransform="matrix(-0.00000139336,-0.62506,1.125108,-0.000000812309,-102.160949,508.762635)">
<stop offset="0" style="stop-color:rgb(0%,0%,0%);stop-opacity:0.313725;"/>
<stop offset="0.222222" style="stop-color:rgb(0%,0%,0%);stop-opacity:0.27451;"/>
<stop offset="1" style="stop-color:rgb(0%,0%,0%);stop-opacity:0;"/>
</radialGradient>
<radialGradient id="radial3" gradientUnits="userSpaceOnUse" cx="450.908936" cy="189.579361" fx="450.908936" fy="189.579361" r="21.166656" gradientTransform="matrix(0.00000139336,0.62506,-1.125108,0.000000812309,356.1852,-60.21986)">
<stop offset="0" style="stop-color:rgb(0%,0%,0%);stop-opacity:0.313725;"/>
<stop offset="0.222222" style="stop-color:rgb(0%,0%,0%);stop-opacity:0.27451;"/>
<stop offset="1" style="stop-color:rgb(0%,0%,0%);stop-opacity:0;"/>
</radialGradient>
<linearGradient id="linear0" gradientUnits="userSpaceOnUse" x1="255.323059" y1="233.5" x2="255.323044" y2="254.666656" gradientTransform="matrix(0.10688,0,0,0.500048,99.723089,107.510269)">
<stop offset="0" style="stop-color:rgb(0%,0%,0%);stop-opacity:0.27451;"/>
<stop offset="1" style="stop-color:rgb(0%,0%,0%);stop-opacity:0;"/>
</linearGradient>
<linearGradient id="linear1" gradientUnits="userSpaceOnUse" x1="254" y1="-168.666672" x2="254" y2="233.5" >
<stop offset="0" style="stop-color:rgb(77.254902%,79.215686%,91.372549%);stop-opacity:1;"/>
<stop offset="1" style="stop-color:rgb(62.352941%,65.882353%,85.490196%);stop-opacity:1;"/>
</linearGradient>
<linearGradient id="linear2" gradientUnits="userSpaceOnUse" x1="960" y1="1295.118164" x2="960" y2="455.118103" >
<stop offset="0" style="stop-color:rgb(25.882353%,25.882353%,25.882353%);stop-opacity:1;"/>
<stop offset="1" style="stop-color:rgb(38.039216%,38.039216%,38.039216%);stop-opacity:1;"/>
</linearGradient>
</defs>
<g id="surface1">
<path style=" stroke:none;fill-rule:nonzero;fill:url(#radial0);" d="M 145.535156 224.269531 L 166.703125 224.269531 L 166.703125 213.6875 L 145.535156 213.6875 Z M 145.535156 224.269531 "/>
<path style=" stroke:none;fill-rule:nonzero;fill:url(#radial1);" d="M 108.488281 224.269531 L 87.320312 224.269531 L 87.320312 234.855469 L 108.488281 234.855469 Z M 108.488281 224.269531 "/>
<path style=" stroke:none;fill-rule:nonzero;fill:url(#radial2);" d="M 108.488281 224.269531 L 87.320312 224.269531 L 87.320312 213.6875 L 108.488281 213.6875 Z M 108.488281 224.269531 "/>
<path style=" stroke:none;fill-rule:nonzero;fill:url(#radial3);" d="M 145.535156 224.269531 L 166.703125 224.269531 L 166.703125 234.855469 L 145.535156 234.855469 Z M 145.535156 224.269531 "/>
<path style=" stroke:none;fill-rule:nonzero;fill:url(#linear0);" d="M 108.488281 221.625 L 145.535156 221.625 L 145.535156 234.855469 L 108.488281 234.855469 Z M 108.488281 221.625 "/>
<path style="fill-rule:nonzero;fill:url(#linear1);stroke-width:3;stroke-linecap:round;stroke-linejoin:miter;stroke:rgb(20%,20%,20%);stroke-opacity:1;stroke-miterlimit:4;" d="M 253.999182 -168.668487 C 365.058889 -168.668487 455.081542 -78.638022 455.081542 32.413873 C 455.081542 143.47358 365.058889 233.496233 253.999182 233.496233 C 142.947287 233.496233 52.916822 143.47358 52.916822 32.413873 C 52.916822 -78.638022 142.947287 -168.668487 253.999182 -168.668487 Z M 253.999182 -168.668487 " transform="matrix(0.500048,0,0,0.500048,0,107.510266)"/>
<path style=" stroke:none;fill-rule:nonzero;fill:rgb(0%,0%,0%);fill-opacity:0.196078;" d="M 127.011719 224.269531 C 71.308594 224.269531 26.460938 179.425781 26.460938 123.71875 C 26.460938 123.390625 26.464844 123.0625 26.46875 122.734375 C 26.992188 177.984375 71.636719 222.300781 127.011719 222.300781 C 182.390625 222.300781 227.03125 177.984375 227.558594 122.734375 C 227.558594 123.0625 227.5625 123.390625 227.5625 123.71875 C 227.5625 179.425781 182.71875 224.269531 127.011719 224.269531 Z M 127.011719 224.269531 "/>
<path style=" stroke:none;fill-rule:nonzero;fill:rgb(100%,100%,100%);fill-opacity:0.392157;" d="M 127.011719 23.167969 C 71.308594 23.167969 26.460938 68.015625 26.460938 123.71875 C 26.460938 124.046875 26.464844 124.375 26.46875 124.703125 C 26.992188 69.457031 71.636719 25.136719 127.011719 25.136719 C 182.390625 25.136719 227.03125 69.457031 227.558594 124.703125 C 227.558594 124.375 227.5625 124.046875 227.5625 123.71875 C 227.5625 68.015625 182.71875 23.167969 127.011719 23.167969 Z M 127.011719 23.167969 "/>
<path style=" stroke:none;fill-rule:nonzero;fill:rgb(12.941177%,12.941177%,12.941177%);fill-opacity:1;" d="M 127.011719 22.417969 C 70.902344 22.417969 25.710938 67.613281 25.710938 123.71875 C 25.710938 179.828125 70.902344 225.023438 127.011719 225.023438 C 183.121094 225.023438 228.3125 179.828125 228.3125 123.71875 C 228.3125 67.613281 183.121094 22.417969 127.011719 22.417969 Z M 127.011719 23.917969 C 182.316406 23.917969 226.8125 68.417969 226.8125 123.71875 C 226.8125 179.023438 182.316406 223.519531 127.011719 223.519531 C 71.710938 223.519531 27.210938 179.023438 27.210938 123.71875 C 27.210938 68.417969 71.710938 23.917969 127.011719 23.917969 Z M 127.011719 23.917969 "/>
<path style="fill-rule:nonzero;fill:url(#linear2);stroke-width:11.338583;stroke-linecap:round;stroke-linejoin:miter;stroke:rgb(12.941177%,12.941177%,12.941177%);stroke-opacity:1;stroke-miterlimit:4;" d="M 958.697869 455.123885 C 848.60011 455.123885 759.996362 526.485184 759.996362 615.118457 L 759.996362 855.125078 L 719.990337 855.125078 C 697.846781 855.125078 680.013838 871.186537 680.013838 891.174786 L 680.013838 899.057892 C 680.013838 919.046142 697.846781 935.107601 719.990337 935.107601 L 1200.003579 935.107601 C 1222.147135 935.107601 1240.009603 919.046142 1240.009603 899.057892 L 1240.009603 891.174786 C 1240.009603 871.186537 1222.147135 855.125078 1200.003579 855.125078 L 1159.997554 855.125078 L 1159.997554 615.118457 C 1159.997554 526.485184 1071.393806 455.123885 961.325571 455.123885 Z M 959.996958 535.106408 C 1026.486675 535.106408 1079.985506 588.634764 1079.985506 655.124481 L 1079.985506 855.125078 L 840.00841 855.125078 L 840.00841 655.124481 C 840.00841 588.634764 893.507241 535.106408 959.996958 535.106408 Z M 719.990337 975.113625 C 697.846781 975.113625 680.013838 992.946569 680.013838 1015.11965 C 680.013838 1037.263206 697.846781 1055.125674 719.990337 1055.125674 L 859.99666 1055.125674 C 882.16974 1055.125674 900.002684 1037.263206 900.002684 1015.11965 C 900.002684 992.946569 882.16974 975.113625 859.99666 975.113625 Z M 1059.997256 975.113625 C 1037.8537 975.113625 1019.991232 992.946569 1019.991232 1015.11965 C 1019.991232 1037.263206 1037.8537 1055.125674 1059.997256 1055.125674 L 1200.003579 1055.125674 C 1222.147135 1055.125674 1240.009603 1037.263206 1240.009603 1015.11965 C 1240.009603 992.946569 1222.147135 975.113625 1200.003579 975.113625 Z M 719.990337 1095.131698 C 697.846781 1095.131698 680.013838 1112.964642 680.013838 1135.108198 C 680.013838 1157.281278 697.846781 1175.114222 719.990337 1175.114222 L 859.99666 1175.114222 C 882.16974 1175.114222 900.002684 1157.281278 900.002684 1135.108198 C 900.002684 1112.964642 882.16974 1095.131698 859.99666 1095.131698 Z M 1059.997256 1095.131698 C 1037.8537 1095.131698 1019.991232 1112.964642 1019.991232 1135.108198 C 1019.991232 1157.281278 1037.8537 1175.114222 1059.997256 1175.114222 L 1200.003579 1175.114222 C 1222.147135 1175.114222 1240.009603 1157.281278 1240.009603 1135.108198 C 1240.009603 1112.964642 1222.147135 1095.131698 1200.003579 1095.131698 Z M 719.990337 1215.120246 C 697.846781 1215.120246 680.013838 1231.21123 680.013838 1251.169955 L 680.013838 1259.053061 C 680.013838 1279.041311 697.846781 1295.10277 719.990337 1295.10277 L 1200.003579 1295.10277 C 1222.147135 1295.10277 1240.009603 1279.041311 1240.009603 1259.053061 L 1240.009603 1251.169955 C 1240.009603 1231.21123 1222.147135 1215.120246 1200.003579 1215.120246 Z M 719.990337 1215.120246 " transform="matrix(0.132304,0,0,0.132304,0,0)"/>
</g>
</svg>

<svg xmlns="http://www.w3.org/2000/svg" width="256pt" height="256pt" viewBox="0 0 256 256"><defs><radialGradient id="a" gradientUnits="userSpaceOnUse" cx="450.909" cy="189.579" fx="450.909" fy="189.579" r="21.167" gradientTransform="matrix(0 -.62506 -1.1251 0 356.185 508.763)"><stop offset="0" stop-opacity=".314"/><stop offset=".222" stop-opacity=".275"/><stop offset="1" stop-opacity="0"/></radialGradient><radialGradient id="b" gradientUnits="userSpaceOnUse" cx="450.909" cy="189.579" fx="450.909" fy="189.579" r="21.167" gradientTransform="matrix(0 .62506 1.1251 0 -102.16 -60.22)"><stop offset="0" stop-opacity=".314"/><stop offset=".222" stop-opacity=".275"/><stop offset="1" stop-opacity="0"/></radialGradient><radialGradient id="c" gradientUnits="userSpaceOnUse" cx="450.909" cy="189.579" fx="450.909" fy="189.579" r="21.167" gradientTransform="matrix(0 -.62506 1.1251 0 -102.16 508.763)"><stop offset="0" stop-opacity=".314"/><stop offset=".222" stop-opacity=".275"/><stop offset="1" stop-opacity="0"/></radialGradient><radialGradient id="d" gradientUnits="userSpaceOnUse" cx="450.909" cy="189.579" fx="450.909" fy="189.579" r="21.167" gradientTransform="matrix(0 .62506 -1.1251 0 356.185 -60.22)"><stop offset="0" stop-opacity=".314"/><stop offset=".222" stop-opacity=".275"/><stop offset="1" stop-opacity="0"/></radialGradient><linearGradient id="e" gradientUnits="userSpaceOnUse" x1="255.323" y1="233.5" x2="255.323" y2="254.667" gradientTransform="matrix(.10688 0 0 .50005 99.723 107.51)"><stop offset="0" stop-opacity=".275"/><stop offset="1" stop-opacity="0"/></linearGradient><linearGradient id="f" gradientUnits="userSpaceOnUse" x1="254" y1="-168.667" x2="254" y2="233.5"><stop offset="0" stop-color="#c5cae9"/><stop offset="1" stop-color="#9fa8da"/></linearGradient><linearGradient id="g" gradientUnits="userSpaceOnUse" x1="960" y1="1295.118" x2="960" y2="455.118"><stop offset="0" stop-color="#424242"/><stop offset="1" stop-color="#616161"/></linearGradient></defs><path d="M145.535 224.27h21.168v-10.583h-21.168zm0 0" fill="url(#a)"/><path d="M108.488 224.27H87.32v10.585h21.168zm0 0" fill="url(#b)"/><path d="M108.488 224.27H87.32v-10.583h21.168zm0 0" fill="url(#c)"/><path d="M145.535 224.27h21.168v10.585h-21.168zm0 0" fill="url(#d)"/><path d="M108.488 221.625h37.047v13.23h-37.047zm0 0" fill="url(#e)"/><path d="M254-168.668c111.059 0 201.082 90.03 201.082 201.082 0 111.06-90.023 201.082-201.083 201.082-111.052 0-201.082-90.022-201.082-201.082 0-111.052 90.03-201.082 201.082-201.082zm0 0" transform="matrix(.50005 0 0 .50005 0 107.51)" fill="url(#f)" stroke-width="3" stroke-linecap="round" stroke="#333"/><path d="M127.012 224.27c-55.703 0-100.551-44.844-100.551-100.551 0-.328.004-.656.008-.985.523 55.25 45.168 99.567 100.543 99.567 55.379 0 100.02-44.317 100.547-99.567 0 .329.004.657.004.985 0 55.707-44.844 100.55-100.551 100.55zm0 0" fill-opacity=".196"/><path d="M127.012 23.168c-55.703 0-100.551 44.848-100.551 100.55 0 .329.004.657.008.985.523-55.246 45.168-99.566 100.543-99.566 55.379 0 100.02 44.32 100.547 99.566 0-.328.004-.656.004-.984 0-55.703-44.844-100.551-100.551-100.551zm0 0" fill="#fff" fill-opacity=".392"/><path d="M127.012 22.418c-56.11 0-101.301 45.195-101.301 101.3 0 56.11 45.191 101.305 101.3 101.305 56.11 0 101.302-45.195 101.302-101.304 0-56.106-45.192-101.301-101.301-101.301zm0 1.5c55.304 0 99.8 44.5 99.8 99.8 0 55.305-44.496 99.802-99.8 99.802-55.301 0-99.801-44.497-99.801-99.801 0-55.301 44.5-99.801 99.8-99.801zm0 0" fill="#212121"/><path d="M958.698 455.124c-110.098 0-198.702 71.361-198.702 159.994v240.007H719.99c-22.143 0-39.976 16.062-39.976 36.05v7.883c0 19.988 17.833 36.05 39.976 36.05h480.014c22.143 0 40.006-16.062 40.006-36.05v-7.883c0-19.988-17.863-36.05-40.006-36.05h-40.006V615.118c0-88.633-88.604-159.994-198.672-159.994zm1.299 79.982c66.49 0 119.989 53.529 119.989 120.018v200.001H840.008v-200c0-66.49 53.5-120.019 119.989-120.019zM719.99 975.114c-22.143 0-39.976 17.833-39.976 40.006 0 22.143 17.833 40.006 39.976 40.006h140.007c22.173 0 40.006-17.863 40.006-40.006a39.906 39.906 0 0 0-40.006-40.006zm340.007 0c-22.143 0-40.006 17.833-40.006 40.006 0 22.143 17.863 40.006 40.006 40.006h140.007c22.143 0 40.006-17.863 40.006-40.006 0-22.173-17.863-40.006-40.006-40.006zM719.99 1095.132c-22.143 0-39.976 17.833-39.976 39.976 0 22.173 17.833 40.006 39.976 40.006h140.007a39.906 39.906 0 0 0 40.006-40.006c0-22.143-17.833-39.976-40.006-39.976zm340.007 0c-22.143 0-40.006 17.833-40.006 39.976 0 22.173 17.863 40.006 40.006 40.006h140.007c22.143 0 40.006-17.833 40.006-40.006 0-22.143-17.863-39.976-40.006-39.976zM719.99 1215.12c-22.143 0-39.976 16.091-39.976 36.05v7.883c0 19.988 17.833 36.05 39.976 36.05h480.014c22.143 0 40.006-16.062 40.006-36.05v-7.883c0-19.959-17.863-36.05-40.006-36.05zm0 0" transform="scale(.1323)" fill="url(#g)" stroke-width="11.339" stroke-linecap="round" stroke="#212121"/></svg>
